src/main/resources/icons/AllIcons/debugger/killProcess_dark.svg

<!-- Copyright 2000-2021 JetBrains s.r.o. Use of this source code is governed by the Apache 2.0 license that can be found in the LICENSE file. -->
<svg xmlns="http://www.w3.org/2000/svg" width="16" height="16" viewBox="0 0 16 16">
  <path fill="#C75450" fill-rule="evenodd" d="M10.9979553,12 L10.9979553,13.9959717 L5.00152588,13.9959717 L5.00152588,12 L3.34823648,11.5857143 C2.64941213,10.5175037 2.29999995,8.79845611 2.29999995,6.42857145 C2.29999995,3.43067052 5.00188282,1 8.00000004,1 C10.9981173,1 13.6999998,3.43045914 13.6999998,6.42857145 C13.6999998,8.79524159 13.359542,10.5142892 12.6786264,11.5857143 L10.9979553,12 Z M4.66027832,9.83447266 C5.39842059,9.96462705 6.95184326,9.18496933 6.95184326,8.36180473 C6.95184326,7.53864013 6.64392226,7.04970987 5.90881348,6.90411377 C3.51068115,6.42913818 3.51068115,7.9670838 3.51068115,8.23522949 C3.51068115,9.13262939 3.92213605,9.70431826 4.66027832,9.83447266 Z M10.7396292,9.83708622 C11.4777715,9.70693182 11.8892264,9.13524296 11.8892264,8.23784306 C11.8892264,7.96969737 11.8892264,6.43175175 9.49109408,6.90672734 C8.7559853,7.05232344 8.4480643,7.5412537 8.4480643,8.3644183 C8.4480643,9.1875829 10.001487,9.96724062 10.7396292,9.83708622 Z"/>
</svg>

<svg xmlns="http://www.w3.org/2000/svg" width="16" height="16" viewBox="0 0 16 16"><rect id="frame" width="16" height="16" fill="none"/><path fill="#C75450" fill-rule="evenodd" d="M10.998 12v1.996H5.002V12l-1.654-.414C2.65 10.518 2.3 8.798 2.3 6.429 2.3 3.43 5.002 1 8 1s5.7 2.43 5.7 5.429c0 2.366-.34 4.085-1.021 5.157L10.998 12zM4.66 9.834c.738.13 2.292-.649 2.292-1.472S6.644 7.05 5.909 6.904C3.51 6.43 3.51 7.967 3.51 8.235c0 .898.411 1.47 1.15 1.6zm6.08.003c.738-.13 1.15-.702 1.15-1.6 0-.267 0-1.805-2.399-1.33-.735.145-1.043.634-1.043 1.457 0 .824 1.553 1.603 2.292 1.473z"/></svg>
